src/images/svg/flags/pt.svg

<svg width="24" height="16" viewBox="0 0 24 16" fill="none" xmlns="http://www.w3.org/2000/svg">
<mask id="mask0_1905_136" style="mask-type:alpha" maskUnits="userSpaceOnUse" x="0" y="0" width="24" height="16">
<path d="M22 0H2C0.89543 0 0 0.89543 0 2V14C0 15.1046 0.89543 16 2 16H22C23.1046 16 24 15.1046 24 14V2C24 0.89543 23.1046 0 22 0Z" fill="white"/>
</mask>
<g mask="url(#mask0_1905_136)">
<path d="M22 0H2C0.89543 0 0 0.89543 0 2V14C0 15.1046 0.89543 16 2 16H22C23.1046 16 24 15.1046 24 14V2C24 0.89543 23.1046 0 22 0Z" fill="#FF2936"/>
<path d="M8 0H0V16H8V0Z" fill="#128415"/>
<path d="M8 11.5C9.933 11.5 11.5 9.933 11.5 8C11.5 6.067 9.933 4.5 8 4.5C6.067 4.5 4.5 6.067 4.5 8C4.5 9.933 6.067 11.5 8 11.5Z" stroke="#FAF94F"/>
<path d="M6.5 6.34104C6.5 6.15269 6.6447 6 6.83251 6H9.16749C9.35113 6 9.5 6.15192 9.5 6.34104V8.66806C9.5 9.40367 8.9073 10 8.17542 10H7.82458C7.09303 10 6.5 9.40979 6.5 8.66806V6.34104Z" fill="white"/>
<path d="M8 8.92001C8.41421 8.92001 8.75 7.83423 8.75 7.42001C8.75 7.0058 8.41421 6.67001 8 6.67001C7.58579 6.67001 7.25 7.0058 7.25 7.42001C7.25 7.83423 7.58579 8.92001 8 8.92001Z" fill="#1D50B5"/>
<path fill-rule="evenodd" clip-rule="evenodd" d="M22 1H2C1.44772 1 1 1.44772 1 2V14C1 14.5523 1.44772 15 2 15H22C22.5523 15 23 14.5523 23 14V2C23 1.44771 22.5523 1 22 1ZM2 0C0.895431 0 0 0.895431 0 2V14C0 15.1046 0.89543 16 2 16H22C23.1046 16 24 15.1046 24 14V2C24 0.895431 23.1046 0 22 0H2Z" fill="black" fill-opacity="0.04"/>
</g>
</svg>

<svg width="24" height="16" fill="none" xmlns="http://www.w3.org/2000/svg"><mask id="a" style="mask-type:alpha" maskUnits="userSpaceOnUse" x="0" y="0" width="24" height="16"><path d="M22 0H2a2 2 0 0 0-2 2v12a2 2 0 0 0 2 2h20a2 2 0 0 0 2-2V2a2 2 0 0 0-2-2Z" fill="#fff"/></mask><g mask="url(#a)"><path d="M22 0H2a2 2 0 0 0-2 2v12a2 2 0 0 0 2 2h20a2 2 0 0 0 2-2V2a2 2 0 0 0-2-2Z" fill="#FF2936"/><path d="M8 0H0v16h8V0Z" fill="#128415"/><path d="M8 11.5a3.5 3.5 0 1 0 0-7 3.5 3.5 0 0 0 0 7Z" stroke="#FAF94F"/><path d="M6.5 6.341c0-.188.145-.341.333-.341h2.334c.184 0 .333.152.333.341v2.327C9.5 9.404 8.907 10 8.175 10h-.35C7.093 10 6.5 9.41 6.5 8.668V6.341Z" fill="#fff"/><path d="M8 8.92c.414 0 .75-1.086.75-1.5a.75.75 0 0 0-1.5 0c0 .414.336 1.5.75 1.5Z" fill="#1D50B5"/><path fill-rule="evenodd" clip-rule="evenodd" d="M22 1H2a1 1 0 0 0-1 1v12a1 1 0 0 0 1 1h20a1 1 0 0 0 1-1V2a1 1 0 0 0-1-1ZM2 0a2 2 0 0 0-2 2v12a2 2 0 0 0 2 2h20a2 2 0 0 0 2-2V2a2 2 0 0 0-2-2H2Z" fill="#000" fill-opacity=".04"/></g></svg>
